artifacts/img/icon.svg

<svg aria-hidden="true" style="position: absolute; width: 0; height: 0; overflow: hidden;" version="1.1" xmlns="http://www.w3.org/2000/svg" xmlns:xlink="http://www.w3.org/1999/xlink">
<defs>
<symbol id="clipboard" viewBox="0 0 16 16">
<path d="M4 1.5H3a2 2 0 0 0-2 2V14a2 2 0 0 0 2 2h10a2 2 0 0 0 2-2V3.5a2 2 0 0 0-2-2h-1v1h1a1 1 0 0 1 1 1V14a1 1 0 0 1-1 1H3a1 1 0 0 1-1-1V3.5a1 1 0 0 1 1-1h1v-1z"/>
<path d="M9.5 1a.5.5 0 0 1 .5.5v1a.5.5 0 0 1-.5.5h-3a.5.5 0 0 1-.5-.5v-1a.5.5 0 0 1 .5-.5h3zm-3-1A1.5 1.5 0 0 0 5 1.5v1A1.5 1.5 0 0 0 6.5 4h3A1.5 1.5 0 0 0 11 2.5v-1A1.5 1.5 0 0 0 9.5 0h-3z"/>
</symbol>
<symbol id="icon-paste" viewBox="0 0 32 32">
<path d="M22 4h-4v-2c0-1.1-0.9-2-2-2h-4c-1.1 0-2 0.9-2 2v2h-4v4h16v-4zM16 4h-4v-1.996c0.001-0.001 0.002-0.002 0.004-0.004h3.993c0.001 0.001 0.003 0.002 0.004 0.004v1.996zM26 10v-5c0-0.55-0.45-1-1-1h-2v2h1v4h-6l-6 6v8h-8v-18h1v-2h-2c-0.55 0-1 0.45-1 1v20c0 0.55 0.45 1 1 1h9v6h20v-22h-6zM18 12.828v3.172h-3.172l3.172-3.172zM30 30h-16v-12h6v-6h10v18z"></path>
</symbol>
<symbol id="icon-clipboard" viewBox="0 0 32 32">
<path d="M29 4h-9c0-2.209-1.791-4-4-4s-4 1.791-4 4h-9c-0.552 0-1 0.448-1 1v26c0 0.552 0.448 1 1 1h26c0.552 0 1-0.448 1-1v-26c0-0.552-0.448-1-1-1zM16 2c1.105 0 2 0.895 2 2s-0.895 2-2 2c-1.105 0-2-0.895-2-2s0.895-2 2-2zM28 30h-24v-24h4v3c0 0.552 0.448 1 1 1h14c0.552 0 1-0.448 1-1v-3h4v24z"></path>
<path d="M14 26.828l-6.414-7.414 1.828-1.828 4.586 3.586 8.586-7.586 1.829 1.828z"></path>
</symbol>
</defs>
</svg>

<svg aria-hidden="true" style="position:absolute;width:0;height:0;overflow:hidden" xmlns="http://www.w3.org/2000/svg"><defs><symbol id="clipboard" viewBox="0 0 16 16"><path d="M4 1.5H3a2 2 0 0 0-2 2V14a2 2 0 0 0 2 2h10a2 2 0 0 0 2-2V3.5a2 2 0 0 0-2-2h-1v1h1a1 1 0 0 1 1 1V14a1 1 0 0 1-1 1H3a1 1 0 0 1-1-1V3.5a1 1 0 0 1 1-1h1v-1z"/><path d="M9.5 1a.5.5 0 0 1 .5.5v1a.5.5 0 0 1-.5.5h-3a.5.5 0 0 1-.5-.5v-1a.5.5 0 0 1 .5-.5h3zm-3-1A1.5 1.5 0 0 0 5 1.5v1A1.5 1.5 0 0 0 6.5 4h3A1.5 1.5 0 0 0 11 2.5v-1A1.5 1.5 0 0 0 9.5 0h-3z"/></symbol><symbol id="icon-paste" viewBox="0 0 32 32"><path d="M22 4h-4V2c0-1.1-.9-2-2-2h-4c-1.1 0-2 .9-2 2v2H6v4h16V4zm-6 0h-4V2.004L12.004 2h3.993l.004.004V4zm10 6V5c0-.55-.45-1-1-1h-2v2h1v4h-6l-6 6v8H4V6h1V4H3c-.55 0-1 .45-1 1v20c0 .55.45 1 1 1h9v6h20V10h-6zm-8 2.828V16h-3.172L18 12.828zM30 30H14V18h6v-6h10v18z"/></symbol><symbol id="icon-clipboard" viewBox="0 0 32 32"><path d="M29 4h-9a4 4 0 0 0-8 0H3a1 1 0 0 0-1 1v26a1 1 0 0 0 1 1h26a1 1 0 0 0 1-1V5a1 1 0 0 0-1-1zM16 2a2 2 0 1 1 .001 3.999A2 2 0 0 1 16 2zm12 28H4V6h4v3a1 1 0 0 0 1 1h14a1 1 0 0 0 1-1V6h4v24z"/><path d="m14 26.828-6.414-7.414 1.828-1.828L14 21.172l8.586-7.586 1.829 1.828z"/></symbol></defs></svg>
